X:1
T:Old Martyrs, CM
T:Old Martyrs, CM
T:Psalms (Edinburgh, Scotlan
T:Public Domain Courtesy of the Cyber Hymnal™
C:Psalms (Edinburgh, Scotlan
Z:Public Domain
Z:Courtesy of the Cyber Hymnal™
%%score ( 1 2 ) ( 3 4 )
L:1/8
Q:1/4=107
M:none
K:F
V:1 treble 
V:2 treble 
V:3 bass 
V:4 bass 
V:1
 D2 | [DF]2 D2 [EA]2 [DF]2 | [A,E]2 D2 [^CA]2 [DA]2 | [Ec]2 [FA]2 [FB]2 [Fd]2 | [FA]6 [CA]2 | %5
 [Cc]2 [CG]2 [CA]2 [DF]2 | [A,E]2 D2 [^CA]2 [=C=c]2 | [DB]2 [DG]2 [DB]2 [^CA]2 | D6 |] %9
V:2
 D2 | x2 D2 x4 | x2 D2 x4 | x8 | x8 | x8 | x2 D2 x4 | x8 | D6 |] %9
V:3
 F,2 | [D,A,]2 [D,F,]2 [^C,A,]2 [D,A,]2 | [C,E,]2 (F,G,) [A,,A,]2 [D,F,]2 | %3
 [C,G,]2 F,2 [D,B,]2 [B,,B,]2 | [F,C]6 F,2 | [E,G,]2 [C,E,]2 F,2 [D,A,]2 | %6
 [C,E,]2 (F,G,) [A,,A,]2 (E,^F,) | [G,,G,]2 [B,,G,]2 [G,,E,]2 [A,,E,]2 | [D,F,]6 |] %9
V:4
 F,2 | x8 | x2 B,,2 x4 | x2 F,2 x4 | x6 F,2 | x4 F,2 x2 | x2 B,,2 x A,,2 x | x8 | x6 |] %9

